!!!OTL: ES LEIT EIN SCHLOSS IN OESTERREICH
!!!ARE: Europa, Mitteleuropa, Deutschland
!!!SCT: E0061
!!!YEM: Copyright 1995, estate of Helmut Schaffrath.
**kern
*ICvox
*Ivox
*M3/4
*k[b-]
*F:
{4f
=1
2f
4a
=2
2a
4f
=3
2a
4b-
=4
2cc}
{4f
=5
2cc
4cc
=6
2cc
4a
=7
2b-
4cc
=8
2a}
{4a
=9
2b-
4b-
=10
2b-
4cc
=11
2g
4g
=12
2g}
{4g
=13
2cc
4cc
=14
4a
4f
4a
=15
2cc
8b-
8a
=16
2g}
{4g
=17
2a
4g
=18
4.f
8e
8e
8d
=19
2f}
==
!!!AGN: erzaehlendes Volks - Lied, Sage, Mord, Ballade ?
!!!ONB: ESAC (Essen Associative Code) Database: ERK1
!!!AMT: simple triple
!!!AIN: vox
!!!EED: Helmut Schaffrath
!!!EEV: 1.0
*-
